actions/22x22-light/view-multiple-objects.svg

<svg viewBox="0 0 22 22" xmlns="http://www.w3.org/2000/svg"><path d="m2.8925781 3c-.2363733 0-.4257812.1894079-.4257812.4257812v6.6132808c0 .236374.1894079.427735.4257812.427735h9.8144529c.236374 0 .425781-.191361.425781-.427735v-6.6132808c0-.2363733-.189407-.4257812-.425781-.4257812zm11.7343749 0c-.236373 0-.427734.1894079-.427734.4257812v6.6132808c0 .236374.191361.427735.427734.427735h4.480469c.236373 0 .425781-.191361.425781-.427735v-6.6132808c0-.2363733-.189408-.4257812-.425781-.4257812zm-11.626953 8.533203c-.2954667 0-.5332031.237737-.5332031.533203v6.400391c0 .295467.2377364.533203.5332031.533203h16c .295467 0 .533203-.237736.533203-.533203v-6.400391c0-.295466-.237736-.533203-.533203-.533203z" fill="#4d4d4d"/></svg>

<svg xmlns="http://www.w3.org/2000/svg" viewBox="0 0 22 22">
  <defs id="defs3051">
    <style type="text/css" id="current-color-scheme">
      .ColorScheme-Text {
        color:#4d4d4d
      }
      </style>
  </defs>
 <path 
     style="fill:currentColor;fill-opacity:1;stroke:none"      
	 class="ColorScheme-Text"
        d="M 2.8925781 3 C 2.6562048 3 2.4667969 3.1894079 2.4667969 3.4257812 L 2.4667969 10.039062 C 2.4667969 10.275436 2.6562048 10.466797 2.8925781 10.466797 L 12.707031 10.466797 C 12.943405 10.466797 13.132812 10.275436 13.132812 10.039062 L 13.132812 3.4257812 C 13.132812 3.1894079 12.943405 3 12.707031 3 L 2.8925781 3 z M 14.626953 3 C 14.39058 3 14.199219 3.1894079 14.199219 3.4257812 L 14.199219 10.039062 C 14.199219 10.275436 14.39058 10.466797 14.626953 10.466797 L 19.107422 10.466797 C 19.343795 10.466797 19.533203 10.275436 19.533203 10.039062 L 19.533203 3.4257812 C 19.533203 3.1894079 19.343795 3 19.107422 3 L 14.626953 3 z M 3 11.533203 C 2.7045333 11.533203 2.4667969 11.77094 2.4667969 12.066406 L 2.4667969 18.466797 C 2.4667969 18.762264 2.7045333 19 3 19 L 19 19 C 19.295467 19 19.533203 18.762264 19.533203 18.466797 L 19.533203 12.066406 C 19.533203 11.77094 19.295467 11.533203 19 11.533203 L 3 11.533203 z "
     />
</svg>
